X:13
T:The Old Mill
T:The Gardener’s March (adapted)
M:4/4
L:1/8
Q:150
N:Tune adapted from Aird’s 18th Century
N:Collection
Z:Brian Martin
K:G
"(The Gardener's March [adapted])"
D2 |G2A2B2c2|d2e>dc4|B2c>BA4|G>AB>GD4|!
G2A2B2c2|d2e>d c2d>c|B2AB c>BA>G|A4G2:||!
z2|e2c2A4|d2B2G4|c2B2A2G2|F>GA>FD2|!
cd|e2c2A4|d2B2G4|e2c2A>Bc>B|A4G2z2|e2g2f>ga>b|g4g2||
